public/assets/appartement.svg

<svg width="137" height="120" viewBox="0 0 137 120" fill="none" xmlns="http://www.w3.org/2000/svg">
<path d="M33.272 90.6094C32.9188 90.2085 32.5656 89.8145 32.2396 89.3933C30.4805 87.1243 31.9679 83.7819 29.3123 82.0631C26.6295 80.3308 22.5409 82.7629 20.0416 80.7724C18.9277 79.8892 18.5201 78.3743 17.5218 77.362C15.7898 75.6093 12.3872 75.9558 10.7775 77.7493C7.61257 81.2683 11.5178 85.4871 8.86901 89.271C7.81628 90.7724 6.51223 92.3689 6.72278 94.1896C6.96049 96.2344 8.99811 97.5252 10.8794 98.3676C16.503 100.874 25.5632 103.755 31.4381 100.616C34.2092 99.1352 36.0838 95.6094 34.7865 92.7493C34.4198 91.9545 33.8561 91.2751 33.272 90.6094Z" fill="#6FB331"/>
<path d="M29.3122 82.0701C26.6295 80.3378 22.5409 82.7698 20.0415 80.7793C18.9277 79.8962 18.5201 78.3812 17.5217 77.369C15.7898 75.6163 12.3872 75.9627 10.7775 77.7562C7.61256 81.2753 11.5178 85.494 8.869 89.278C7.81628 90.7794 6.51223 92.3758 6.72278 94.1965C6.93332 96.0172 8.57699 97.24 10.2613 98.0824C10.5058 97.5389 10.6485 96.9887 10.7028 96.452C10.8319 95.168 10.533 93.9452 10.3156 92.7155C9.84702 90.0457 12.6588 85.956 17.1074 87.9329C18.1669 88.4016 19.0431 89.2984 20.4286 89.047C23.8924 88.4152 21.787 85.297 23.1453 83.9315C24.0147 83.0552 25.6175 82.5388 26.9012 82.7087C28.538 82.9261 29.4684 84.0878 30.9218 84.509C30.7045 83.5579 30.297 82.7019 29.3122 82.0701Z" fill="#8DD03C"/>
<path d="M19.6743 116.208L24.123 89.7131L21.7662 116.208H19.6743Z" fill="#684825"/>
<path d="M20.9512 108.572L19.6743 92.3352L22.4453 108.388L20.9512 108.572Z" fill="#684825"/>
<path d="M23.085 96.2282L28.1109 93.2798L23.4178 96.7309L23.085 96.2282Z" fill="#684825"/>
<path d="M20.2184 98.1301L13.4946 93.9385L20.5172 97.607L20.2184 98.1301Z" fill="#684825"/>
<path d="M69.9499 22.0192H37.7568V116.592H69.9499V22.0192Z" fill="#FFF9EB"/>
<path d="M67.8241 116.591V22.7796L52.4815 4.08386L37.7568 22.0187V116.591H67.8241Z" fill="#FFF9EB"/>
<path d="M69.9525 116.593H120.85L120.85 22.0209H69.9525L69.9525 116.593Z" fill="#6DC3CD"/>
<path d="M105.933 0.728027H52.4819L69.9572 22.0189H123.409L105.933 0.728027Z" fill="#275954"/>
<path d="M83.2261 36.7753V30.6952H77.7112V36.7753H83.2261Z" fill="#275954"/>
<path d="M78.1521 36.3397H82.791V31.1291H78.1521V36.3397Z" fill="#0D677C"/>
<path d="M82.3427 36.3397H82.791V31.1291H82.3427V36.3397Z" fill="#73DBDF"/>
<path d="M77.2621 36.782H77.7104V30.7018H77.2621V36.782Z" fill="#FFF9EB"/>
<path d="M93.333 36.7754V30.6952H87.818V36.7754H93.333Z" fill="#275954"/>
<path d="M88.2572 36.339H92.896V31.1284H88.2572V36.339Z" fill="#0D677C"/>
<path d="M92.4477 36.339H92.896V31.1284H92.4477V36.339Z" fill="#73DBDF"/>
<path d="M87.3676 36.7806H87.8159V30.7005H87.3676V36.7806Z" fill="#FFF9EB"/>
<path d="M103.439 36.7767V30.6965H97.9246V36.7767H103.439Z" fill="#275954"/>
<path d="M98.364 36.3403H103.003V31.1297H98.364V36.3403Z" fill="#0D677C"/>
<path d="M102.555 36.3403H103.003V31.1297H102.555V36.3403Z" fill="#73DBDF"/>
<path d="M97.4741 36.782H97.9224V30.7018H97.4741V36.782Z" fill="#FFF9EB"/>
<path d="M113.543 36.7775V30.6974H108.028V36.7775H113.543Z" fill="#275954"/>
<path d="M108.467 36.3406H113.106V31.13H108.467V36.3406Z" fill="#0D677C"/>
<path d="M112.658 36.3406H113.106V31.13H112.658V36.3406Z" fill="#73DBDF"/>
<path d="M107.578 36.7821H108.026V30.7019H107.578V36.7821Z" fill="#FFF9EB"/>
<path d="M83.2222 47.2606V41.1804H77.7072V47.2606H83.2222Z" fill="#275954"/>
<path d="M78.1521 46.8278H82.791V41.6171H78.1521V46.8278Z" fill="#0D677C"/>
<path d="M82.3427 46.8278H82.791V41.6171H82.3427V46.8278Z" fill="#73DBDF"/>
<path d="M77.2621 47.2631H77.7104V41.1829H77.2621V47.2631Z" fill="#FFF9EB"/>
<path d="M93.3291 47.2609V41.1808H87.8142V47.2609H93.3291Z" fill="#275954"/>
<path d="M88.2572 46.8274H92.896V41.6168H88.2572V46.8274Z" fill="#0D677C"/>
<path d="M92.4477 46.8274H92.896V41.6168H92.4477V46.8274Z" fill="#73DBDF"/>
<path d="M87.3676 47.2628H87.8159V41.1826H87.3676V47.2628Z" fill="#FFF9EB"/>
<path d="M103.436 47.2618V41.1816H97.9206V47.2618H103.436Z" fill="#275954"/>
<path d="M98.364 46.8275H103.003V41.6169H98.364V46.8275Z" fill="#0D677C"/>
<path d="M102.555 46.8275H103.003V41.6169H102.555V46.8275Z" fill="#73DBDF"/>
<path d="M97.4741 47.2623H97.9224V41.1822H97.4741V47.2623Z" fill="#FFF9EB"/>
<path d="M113.539 47.2619V41.1818H108.024V47.2619H113.539Z" fill="#275954"/>
<path d="M108.467 46.827H113.106V41.6164H108.467V46.827Z" fill="#0D677C"/>
<path d="M112.658 46.827H113.106V41.6164H112.658V46.827Z" fill="#73DBDF"/>
<path d="M107.578 47.2623H108.026V41.1822H107.578V47.2623Z" fill="#FFF9EB"/>
<path d="M83.2246 57.7453V51.6652H77.7098V57.7453H83.2246Z" fill="#275954"/>
<path d="M78.1521 57.3152H82.791V52.1045H78.1521V57.3152Z" fill="#0D677C"/>
<path d="M82.3427 57.3152H82.791V52.1045H82.3427V57.3152Z" fill="#73DBDF"/>
<path d="M77.2621 57.7506H77.7104V51.6704H77.2621V57.7506Z" fill="#FFF9EB"/>
<path d="M93.3315 57.7461V51.666H87.8165V57.7461H93.3315Z" fill="#275954"/>
<path d="M88.2572 57.316H92.896V52.1054H88.2572V57.316Z" fill="#0D677C"/>
<path d="M92.4477 57.316H92.896V52.1054H92.4477V57.316Z" fill="#73DBDF"/>
<path d="M87.3676 57.7507H87.8159V51.6706H87.3676V57.7507Z" fill="#FFF9EB"/>
<path d="M103.438 57.7467V51.6665H97.923V57.7467H103.438Z" fill="#275954"/>
<path d="M98.364 57.3158H103.003V52.1052H98.364V57.3158Z" fill="#0D677C"/>
<path d="M102.555 57.3158H103.003V52.1052H102.555V57.3158Z" fill="#73DBDF"/>
<path d="M97.4741 57.7505H97.9224V51.6703H97.4741V57.7505Z" fill="#FFF9EB"/>
<path d="M113.542 57.7467V51.6665H108.027V57.7467H113.542Z" fill="#275954"/>
<path d="M108.467 57.3152H113.106V52.1045H108.467V57.3152Z" fill="#0D677C"/>
<path d="M112.658 57.3152H113.106V52.1045H112.658V57.3152Z" fill="#73DBDF"/>
<path d="M107.578 57.7499H108.026V51.6697H107.578V57.7499Z" fill="#FFF9EB"/>
<path d="M83.2275 68.2309V62.1508H77.7126V68.2309H83.2275Z" fill="#275954"/>
<path d="M78.1521 67.7966H82.791V62.586H78.1521V67.7966Z" fill="#0D677C"/>
<path d="M82.3427 67.7966H82.791V62.586H82.3427V67.7966Z" fill="#73DBDF"/>
<path d="M77.2621 68.2313H77.7104V62.1512H77.2621V68.2313Z" fill="#FFF9EB"/>
<path d="M93.333 68.2309V62.1508H87.8181V68.2309H93.333Z" fill="#275954"/>
<path d="M88.2572 67.7966H92.896V62.586H88.2572V67.7966Z" fill="#0D677C"/>
<path d="M92.4477 67.7966H92.896V62.586H92.4477V67.7966Z" fill="#73DBDF"/>
<path d="M87.3676 68.2313H87.8159V62.1512H87.3676V68.2313Z" fill="#FFF9EB"/>
<path d="M103.441 68.2317V62.1515H97.9259V68.2317H103.441Z" fill="#275954"/>
<path d="M98.3635 67.796H103.002V62.5854H98.3635V67.796Z" fill="#0D677C"/>
<path d="M102.554 67.796H103.002V62.5854H102.554V67.796Z" fill="#73DBDF"/>
<path d="M97.4741 68.2308H97.9224V62.1507H97.4741V68.2308Z" fill="#FFF9EB"/>
<path d="M113.544 68.2317V62.1515H108.029V68.2317H113.544Z" fill="#275954"/>
<path d="M108.467 67.796H113.106V62.5854H108.467V67.796Z" fill="#0D677C"/>
<path d="M112.658 67.796H113.106V62.5854H112.658V67.796Z" fill="#73DBDF"/>
<path d="M107.578 68.2308H108.026V62.1507H107.578V68.2308Z" fill="#FFF9EB"/>
<path d="M83.2236 78.7153V72.6351H77.7086V78.7153H83.2236Z" fill="#275954"/>
<path d="M78.1521 78.2838H82.791V73.0732H78.1521V78.2838Z" fill="#0D677C"/>
<path d="M82.3427 78.2838H82.791V73.0732H82.3427V78.2838Z" fill="#73DBDF"/>
<path d="M77.2621 78.7185H77.7104V72.6383H77.2621V78.7185Z" fill="#FFF9EB"/>
<path d="M93.3301 78.7163V72.6361H87.8152V78.7163H93.3301Z" fill="#275954"/>
<path d="M88.2572 78.2841H92.896V73.0734H88.2572V78.2841Z" fill="#0D677C"/>
<path d="M92.4477 78.2841H92.896V73.0734H92.4477V78.2841Z" fill="#73DBDF"/>
<path d="M87.3676 78.7188H87.8159V72.6385H87.3676V78.7188Z" fill="#FFF9EB"/>
<path d="M103.437 78.7171V72.637H97.9216V78.7171H103.437Z" fill="#275954"/>
<path d="M98.364 78.2842H103.003V73.0735H98.364V78.2842Z" fill="#0D677C"/>
<path d="M102.555 78.2842H103.003V73.0735H102.555V78.2842Z" fill="#73DBDF"/>
<path d="M97.4741 78.719H97.9224V72.6388H97.4741V78.719Z" fill="#FFF9EB"/>
<path d="M113.54 78.7175V72.6373H108.025V78.7175H113.54Z" fill="#275954"/>
<path d="M108.467 78.2839H113.106V73.0733H108.467V78.2839Z" fill="#0D677C"/>
<path d="M112.658 78.2839H113.106V73.0733H112.658V78.2839Z" fill="#73DBDF"/>
<path d="M107.578 78.7194H108.026V72.6391H107.578V78.7194Z" fill="#FFF9EB"/>
<path d="M103.439 89.2018V83.1217H97.9245V89.2018H103.439Z" fill="#275954"/>
<path d="M98.364 88.7656H103.003V83.555H98.364V88.7656Z" fill="#0D677C"/>
<path d="M102.555 88.7656H103.003V83.555H102.555V88.7656Z" fill="#73DBDF"/>
<path d="M97.4741 89.2065H97.9224V83.1264H97.4741V89.2065Z" fill="#FFF9EB"/>
<path d="M113.543 89.2027V83.1226H108.028V89.2027H113.543Z" fill="#275954"/>
<path d="M108.467 88.7657H113.106V83.5551H108.467V88.7657Z" fill="#0D677C"/>
<path d="M112.658 88.7657H113.106V83.5551H112.658V88.7657Z" fill="#73DBDF"/>
<path d="M107.578 89.2073H108.026V83.1271H107.578V89.2073Z" fill="#FFF9EB"/>
<path d="M103.436 99.6871V93.6069H97.9206V99.6871H103.436Z" fill="#275954"/>
<path d="M98.364 99.2528H103.003V94.0422H98.364V99.2528Z" fill="#0D677C"/>
<path d="M102.555 99.2528H103.003V94.0422H102.555V99.2528Z" fill="#73DBDF"/>
<path d="M97.4741 99.6876H97.9224V93.6073H97.4741V99.6876Z" fill="#FFF9EB"/>
<path d="M113.539 99.6875V93.6073H108.024V99.6875H113.539Z" fill="#275954"/>
<path d="M108.467 99.2532H113.106V94.0426H108.467V99.2532Z" fill="#0D677C"/>
<path d="M112.658 99.2532H113.106V94.0426H112.658V99.2532Z" fill="#73DBDF"/>
<path d="M107.578 99.6879H108.026V93.6077H107.578V99.6879Z" fill="#FFF9EB"/>
<path d="M52.4816 0.728027L69.9569 22.0189H123.408L121.703 23.2417L68.2113 23.2485L52.4816 4.08402L37.757 22.0189H35.0063L52.4816 0.728027Z" fill="#6DC3CD"/>
<line x1="0.454102" y1="117.71" x2="136.211" y2="117.71" stroke="#275954" stroke-width="2.82192"/>
</svg>

<svg width="137" height="120" fill="none" xmlns="http://www.w3.org/2000/svg"><path d="M33.272 90.61c-.353-.401-.706-.796-1.032-1.217-1.76-2.269-.272-5.611-2.928-7.33-2.683-1.732-6.771.7-9.27-1.29-1.114-.884-1.522-2.399-2.52-3.411-1.732-1.753-5.135-1.406-6.744.387-3.165 3.52.74 7.738-1.909 11.522-1.053 1.501-2.357 3.098-2.146 4.919.237 2.044 2.275 3.335 4.156 4.178 5.624 2.506 14.684 5.387 20.56 2.248 2.77-1.48 4.645-5.007 3.347-7.867-.366-.794-.93-1.474-1.514-2.14z" fill="#6FB331"/><path d="M29.312 82.07c-2.683-1.732-6.771.7-9.27-1.29-1.114-.884-1.522-2.399-2.52-3.411-1.732-1.753-5.135-1.406-6.744.387-3.165 3.52.74 7.738-1.909 11.522-1.053 1.501-2.357 3.098-2.146 4.918.21 1.821 1.854 3.044 3.538 3.886a5.262 5.262 0 0 0 .442-1.63c.129-1.284-.17-2.507-.387-3.736-.469-2.67 2.343-6.76 6.791-4.783 1.06.469 1.936 1.365 3.322 1.114 3.463-.632 1.358-3.75 2.716-5.115.87-.877 2.473-1.393 3.756-1.223 1.637.217 2.567 1.379 4.02 1.8-.216-.951-.624-1.807-1.609-2.439z" fill="#8DD03C"/><path d="m19.674 116.208 4.449-26.495-2.357 26.495h-2.092z" fill="#684825"/><path d="m20.951 108.572-1.277-16.237 2.771 16.053-1.494.184zM23.085 96.228l5.026-2.948-4.693 3.45-.333-.502z" fill="#684825"/><path d="m20.218 98.13-6.723-4.191 7.022 3.668-.299.523z" fill="#684825"/><path d="M69.95 22.02H37.757v94.572H69.95V22.019z" fill="#FFF9EB"/><path d="M67.824 116.591V22.78L52.481 4.084 37.757 22.019v94.572h30.067z" fill="#FFF9EB"/><path d="M69.953 116.593h50.897V22.021H69.953v94.572z" fill="#6DC3CD"/><path d="M105.933.728H52.482l17.475 21.29h53.452L105.933.729zM83.226 36.775v-6.08h-5.515v6.08h5.515z" fill="#275954"/><path d="M78.152 36.34h4.639v-5.21h-4.639v5.21z" fill="#0D677C"/><path d="M82.343 36.34h.448v-5.21h-.448v5.21z" fill="#73DBDF"/><path d="M77.262 36.782h.448v-6.08h-.448v6.08z" fill="#FFF9EB"/><path d="M93.333 36.775v-6.08h-5.515v6.08h5.515z" fill="#275954"/><path d="M88.257 36.339h4.639v-5.21h-4.639v5.21z" fill="#0D677C"/><path d="M92.448 36.339h.448v-5.21h-.448v5.21z" fill="#73DBDF"/><path d="M87.368 36.78h.448V30.7h-.448v6.08z" fill="#FFF9EB"/><path d="M103.439 36.777v-6.08h-5.514v6.08h5.514z" fill="#275954"/><path d="M98.364 36.34h4.639v-5.21h-4.639v5.21z" fill="#0D677C"/><path d="M102.555 36.34h.448v-5.21h-.448v5.21z" fill="#73DBDF"/><path d="M97.474 36.782h.448v-6.08h-.448v6.08z" fill="#FFF9EB"/><path d="M113.543 36.778v-6.08h-5.515v6.08h5.515z" fill="#275954"/><path d="M108.467 36.34h4.639v-5.21h-4.639v5.21z" fill="#0D677C"/><path d="M112.658 36.34h.448v-5.21h-.448v5.21z" fill="#73DBDF"/><path d="M107.578 36.782h.448v-6.08h-.448v6.08z" fill="#FFF9EB"/><path d="M83.222 47.26v-6.08h-5.515v6.08h5.515z" fill="#275954"/><path d="M78.152 46.828h4.639v-5.21h-4.639v5.21z" fill="#0D677C"/><path d="M82.343 46.828h.448v-5.21h-.448v5.21z" fill="#73DBDF"/><path d="M77.262 47.263h.448v-6.08h-.448v6.08z" fill="#FFF9EB"/><path d="M93.33 47.26v-6.08h-5.516v6.08h5.515z" fill="#275954"/><path d="M88.257 46.827h4.639v-5.21h-4.639v5.21z" fill="#0D677C"/><path d="M92.448 46.827h.448v-5.21h-.448v5.21z" fill="#73DBDF"/><path d="M87.368 47.263h.448v-6.08h-.448v6.08z" fill="#FFF9EB"/><path d="M103.436 47.262v-6.08h-5.515v6.08h5.515z" fill="#275954"/><path d="M98.364 46.828h4.639v-5.211h-4.639v5.21z" fill="#0D677C"/><path d="M102.555 46.828h.448v-5.211h-.448v5.21z" fill="#73DBDF"/><path d="M97.474 47.262h.448v-6.08h-.448v6.08z" fill="#FFF9EB"/><path d="M113.539 47.262v-6.08h-5.515v6.08h5.515z" fill="#275954"/><path d="M108.467 46.827h4.639v-5.21h-4.639v5.21z" fill="#0D677C"/><path d="M112.658 46.827h.448v-5.21h-.448v5.21z" fill="#73DBDF"/><path d="M107.578 47.262h.448v-6.08h-.448v6.08z" fill="#FFF9EB"/><path d="M83.225 57.745v-6.08H77.71v6.08h5.515z" fill="#275954"/><path d="M78.152 57.315h4.639v-5.21h-4.639v5.21z" fill="#0D677C"/><path d="M82.343 57.315h.448v-5.21h-.448v5.21z" fill="#73DBDF"/><path d="M77.262 57.75h.448v-6.08h-.448v6.08z" fill="#FFF9EB"/><path d="M93.332 57.746v-6.08h-5.515v6.08h5.515z" fill="#275954"/><path d="M88.257 57.316h4.639v-5.21h-4.639v5.21z" fill="#0D677C"/><path d="M92.448 57.316h.448v-5.21h-.448v5.21z" fill="#73DBDF"/><path d="M87.368 57.75h.448v-6.08h-.448v6.08z" fill="#FFF9EB"/><path d="M103.438 57.747v-6.08h-5.515v6.08h5.515z" fill="#275954"/><path d="M98.364 57.316h4.639v-5.21h-4.639v5.21z" fill="#0D677C"/><path d="M102.555 57.316h.448v-5.21h-.448v5.21z" fill="#73DBDF"/><path d="M97.474 57.75h.448v-6.08h-.448v6.08z" fill="#FFF9EB"/><path d="M113.542 57.747v-6.08h-5.515v6.08h5.515z" fill="#275954"/><path d="M108.467 57.315h4.639v-5.21h-4.639v5.21z" fill="#0D677C"/><path d="M112.658 57.315h.448v-5.21h-.448v5.21z" fill="#73DBDF"/><path d="M107.578 57.75h.448v-6.08h-.448v6.08z" fill="#FFF9EB"/><path d="M83.228 68.23v-6.08h-5.515v6.08h5.515z" fill="#275954"/><path d="M78.152 67.797h4.639v-5.211h-4.639v5.21z" fill="#0D677C"/><path d="M82.343 67.797h.448v-5.211h-.448v5.21z" fill="#73DBDF"/><path d="M77.262 68.231h.448v-6.08h-.448v6.08z" fill="#FFF9EB"/><path d="M93.333 68.23v-6.08h-5.515v6.08h5.515z" fill="#275954"/><path d="M88.257 67.797h4.639v-5.211h-4.639v5.21z" fill="#0D677C"/><path d="M92.448 67.797h.448v-5.211h-.448v5.21z" fill="#73DBDF"/><path d="M87.368 68.231h.448v-6.08h-.448v6.08z" fill="#FFF9EB"/><path d="M103.441 68.232v-6.08h-5.515v6.08h5.515z" fill="#275954"/><path d="M98.364 67.796h4.638v-5.21h-4.638v5.21z" fill="#0D677C"/><path d="M102.554 67.796h.448v-5.21h-.448v5.21z" fill="#73DBDF"/><path d="M97.474 68.23h.448v-6.08h-.448v6.08z" fill="#FFF9EB"/><path d="M113.544 68.232v-6.08h-5.515v6.08h5.515z" fill="#275954"/><path d="M108.467 67.796h4.639v-5.21h-4.639v5.21z" fill="#0D677C"/><path d="M112.658 67.796h.448v-5.21h-.448v5.21z" fill="#73DBDF"/><path d="M107.578 68.23h.448v-6.08h-.448v6.08z" fill="#FFF9EB"/><path d="M83.224 78.715v-6.08h-5.515v6.08h5.515z" fill="#275954"/><path d="M78.152 78.284h4.639v-5.21h-4.639v5.21z" fill="#0D677C"/><path d="M82.343 78.284h.448v-5.21h-.448v5.21z" fill="#73DBDF"/><path d="M77.262 78.719h.448v-6.08h-.448v6.08z" fill="#FFF9EB"/><path d="M93.33 78.716v-6.08h-5.515v6.08h5.515z" fill="#275954"/><path d="M88.257 78.284h4.639v-5.21h-4.639v5.21z" fill="#0D677C"/><path d="M92.448 78.284h.448v-5.21h-.448v5.21z" fill="#73DBDF"/><path d="M87.368 78.719h.448v-6.08h-.448v6.08z" fill="#FFF9EB"/><path d="M103.437 78.717v-6.08h-5.515v6.08h5.515z" fill="#275954"/><path d="M98.364 78.284h4.639v-5.21h-4.639v5.21z" fill="#0D677C"/><path d="M102.555 78.284h.448v-5.21h-.448v5.21z" fill="#73DBDF"/><path d="M97.474 78.719h.448v-6.08h-.448v6.08z" fill="#FFF9EB"/><path d="M113.54 78.718v-6.08h-5.515v6.08h5.515z" fill="#275954"/><path d="M108.467 78.284h4.639v-5.21h-4.639v5.21z" fill="#0D677C"/><path d="M112.658 78.284h.448v-5.21h-.448v5.21z" fill="#73DBDF"/><path d="M107.578 78.72h.448v-6.08h-.448v6.08z" fill="#FFF9EB"/><path d="M103.439 89.202v-6.08h-5.514v6.08h5.514z" fill="#275954"/><path d="M98.364 88.766h4.639v-5.211h-4.639v5.21z" fill="#0D677C"/><path d="M102.555 88.766h.448v-5.211h-.448v5.21z" fill="#73DBDF"/><path d="M97.474 89.207h.448v-6.08h-.448v6.08z" fill="#FFF9EB"/><path d="M113.543 89.203v-6.08h-5.515v6.08h5.515z" fill="#275954"/><path d="M108.467 88.766h4.639v-5.21h-4.639v5.21z" fill="#0D677C"/><path d="M112.658 88.766h.448v-5.21h-.448v5.21z" fill="#73DBDF"/><path d="M107.578 89.207h.448v-6.08h-.448v6.08z" fill="#FFF9EB"/><path d="M103.436 99.687v-6.08h-5.515v6.08h5.515z" fill="#275954"/><path d="M98.364 99.253h4.639v-5.21h-4.639v5.21z" fill="#0D677C"/><path d="M102.555 99.253h.448v-5.21h-.448v5.21z" fill="#73DBDF"/><path d="M97.474 99.688h.448v-6.08h-.448v6.08z" fill="#FFF9EB"/><path d="M113.539 99.688v-6.08h-5.515v6.08h5.515z" fill="#275954"/><path d="M108.467 99.253h4.639v-5.21h-4.639v5.21z" fill="#0D677C"/><path d="M112.658 99.253h.448v-5.21h-.448v5.21z" fill="#73DBDF"/><path d="M107.578 99.688h.448v-6.08h-.448v6.08z" fill="#FFF9EB"/><path d="m52.482.728 17.475 21.29h53.451l-1.705 1.224-53.492.006-15.73-19.164-14.724 17.935h-2.75L52.481.728z" fill="#6DC3CD"/><path stroke="#275954" stroke-width="2.822" d="M.454 117.71h135.757"/></svg>
